static/img/kroki/012cdf1c7ead40fcc7c3fa12842196f0.svg

<?xml version="1.0" encoding="us-ascii" standalone="no"?><svg xmlns="http://www.w3.org/2000/svg" xmlns:xlink="http://www.w3.org/1999/xlink" contentStyleType="text/css" height="374px" preserveAspectRatio="none" style="width:565px;height:374px;" version="1.1" viewBox="0 0 565 374" width="565px" zoomAndPan="magnify"><defs/><g><!--class azure_machine_learning_environment_version_base--><g id="elem_azure_machine_learning_environment_version_base"><rect codeLine="23" fill="#3D176E" height="39.7891" id="azure_machine_learning_environment_version_base" rx="2.5" ry="2.5" style="stroke:#000D19;stroke-width:0.5;" width="482" x="7" y="328.58"/><ellipse cx="22" cy="348.4745" fill="#ADD1B2" rx="11" ry="11" style="stroke:#181818;stroke-width:1.0;"/><path d="M24.9688,354.1152 Q24.3906,354.412 23.75,354.5527 Q23.1094,354.7089 22.4063,354.7089 Q19.9063,354.7089 18.5781,353.0683 Q17.2656,351.412 17.2656,348.287 Q17.2656,345.162 18.5781,343.5058 Q19.9063,341.8495 22.4063,341.8495 Q23.1094,341.8495 23.75,342.0058 Q24.4063,342.162 24.9688,342.4589 L24.9688,345.1777 Q24.3438,344.5995 23.75,344.3339 Q23.1563,344.0527 22.5313,344.0527 Q21.1875,344.0527 20.5,345.1308 Q19.8125,346.1933 19.8125,348.287 Q19.8125,350.3808 20.5,351.4589 Q21.1875,352.5214 22.5313,352.5214 Q23.1563,352.5214 23.75,352.2558 Q24.3438,351.9745 24.9688,351.3964 L24.9688,354.1152 Z " fill="#000000"/><text fill="#D9B8FF" font-family="Helvetica" font-size="17" lengthAdjust="spacing" textLength="440" x="41" y="354.3598">azure_machine_learning_environment_version_base</text></g><!--class azure_proxy_resource--><g id="elem_azure_proxy_resource"><rect codeLine="26" fill="#3D176E" height="39.7891" id="azure_proxy_resource" rx="2.5" ry="2.5" style="stroke:#000D19;stroke-width:0.5;" width="224" x="101" y="167.79"/><ellipse cx="116" cy="187.6845" fill="#ADD1B2" rx="11" ry="11" style="stroke:#181818;stroke-width:1.0;"/><path d="M118.9688,193.3252 Q118.3906,193.622 117.75,193.7627 Q117.1094,193.9189 116.4063,193.9189 Q113.9063,193.9189 112.5781,192.2783 Q111.2656,190.622 111.2656,187.497 Q111.2656,184.372 112.5781,182.7158 Q113.9063,181.0595 116.4063,181.0595 Q117.1094,181.0595 117.75,181.2158 Q118.4063,181.372 118.9688,181.6689 L118.9688,184.3877 Q118.3438,183.8095 117.75,183.5439 Q117.1563,183.2627 116.5313,183.2627 Q115.1875,183.2627 114.5,184.3408 Q113.8125,185.4033 113.8125,187.497 Q113.8125,189.5908 114.5,190.6689 Q115.1875,191.7314 116.5313,191.7314 Q117.1563,191.7314 117.75,191.4658 Q118.3438,191.1845 118.9688,190.6064 L118.9688,193.3252 Z " fill="#000000"/><text fill="#D9B8FF" font-family="Helvetica" font-size="17" lengthAdjust="spacing" textLength="182" x="135" y="193.5698">azure_proxy_resource</text></g><!--class phantom_resource--><g id="elem_phantom_resource"><rect codeLine="29" fill="#3D176E" height="39.7891" id="phantom_resource" rx="2.5" ry="2.5" style="stroke:#000D19;stroke-width:0.5;" width="198" x="360" y="167.79"/><ellipse cx="375" cy="187.6845" fill="#ADD1B2" rx="11" ry="11" style="stroke:#181818;stroke-width:1.0;"/><path d="M377.9688,193.3252 Q377.3906,193.622 376.75,193.7627 Q376.1094,193.9189 375.4063,193.9189 Q372.9063,193.9189 371.5781,192.2783 Q370.2656,190.622 370.2656,187.497 Q370.2656,184.372 371.5781,182.7158 Q372.9063,181.0595 375.4063,181.0595 Q376.1094,181.0595 376.75,181.2158 Q377.4063,181.372 377.9688,181.6689 L377.9688,184.3877 Q377.3438,183.8095 376.75,183.5439 Q376.1563,183.2627 375.5313,183.2627 Q374.1875,183.2627 373.5,184.3408 Q372.8125,185.4033 372.8125,187.497 Q372.8125,189.5908 373.5,190.6689 Q374.1875,191.7314 375.5313,191.7314 Q376.1563,191.7314 376.75,191.4658 Q377.3438,191.1845 377.9688,190.6064 L377.9688,193.3252 Z " fill="#000000"/><text fill="#D9B8FF" font-family="Helvetica" font-size="17" lengthAdjust="spacing" textLength="156" x="394" y="193.5698">phantom_resource</text></g><!--class resource--><g id="elem_resource"><rect codeLine="32" fill="#3D176E" height="39.7891" id="resource" rx="2.5" ry="2.5" style="stroke:#000D19;stroke-width:0.5;" width="113" x="402.5" y="7"/><ellipse cx="417.5" cy="26.8945" fill="#ADD1B2" rx="11" ry="11" style="stroke:#181818;stroke-width:1.0;"/><path d="M420.4688,32.5352 Q419.8906,32.832 419.25,32.9727 Q418.6094,33.1289 417.9063,33.1289 Q415.4063,33.1289 414.0781,31.4883 Q412.7656,29.832 412.7656,26.707 Q412.7656,23.582 414.0781,21.9258 Q415.4063,20.2695 417.9063,20.2695 Q418.6094,20.2695 419.25,20.4258 Q419.9063,20.582 420.4688,20.8789 L420.4688,23.5977 Q419.8438,23.0195 419.25,22.7539 Q418.6563,22.4727 418.0313,22.4727 Q416.6875,22.4727 416,23.5508 Q415.3125,24.6133 415.3125,26.707 Q415.3125,28.8008 416,29.8789 Q416.6875,30.9414 418.0313,30.9414 Q418.6563,30.9414 419.25,30.6758 Q419.8438,30.3945 420.4688,29.8164 L420.4688,32.5352 Z " fill="#000000"/><text fill="#D9B8FF" font-family="Helvetica" font-size="17" lengthAdjust="spacing" textLength="71" x="436.5" y="32.7798">resource</text></g><!--reverse link azure_proxy_resource to azure_machine_learning_environment_version_base--><g id="link_azure_proxy_resource_azure_machine_learning_environment_version_base"><path codeLine="35" d="M221.0961,225.4177 C227.8261,255.9377 237.03,297.69 243.76,328.25 " fill="none" id="azure_proxy_resource-backto-azure_machine_learning_environment_version_base" style="stroke:#FFAF37;stroke-width:2.0;"/><polygon fill="none" points="217.22,207.84,215.2368,226.7097,226.9553,224.1257,217.22,207.84" style="stroke:#FFAF37;stroke-width:2.0;"/></g><!--reverse link phantom_resource to azure_machine_learning_environment_version_base--><g id="link_phantom_resource_azure_machine_learning_environment_version_base"><path codeLine="36" d="M419.167,218.6627 C378.607,249.1827 314.15,297.69 273.54,328.25 " fill="none" id="phantom_resource-backto-azure_machine_learning_environment_version_base" style="stroke:#FFAF37;stroke-width:2.0;"/><polygon fill="none" points="433.55,207.84,415.5595,213.8684,422.7746,223.457,433.55,207.84" style="stroke:#FFAF37;stroke-width:2.0;"/></g><!--reverse link resource to phantom_resource--><g id="link_resource_phantom_resource"><path codeLine="37" d="M459,65.05 C459,95.57 459,136.9 459,167.46 " fill="none" id="resource-backto-phantom_resource" style="stroke:#FFAF37;stroke-width:2.0;"/><polygon fill="none" points="459,47.05,453,65.05,465,65.05,459,47.05" style="stroke:#FFAF37;stroke-width:2.0;"/></g><!--SRC=[dP9FJy904CNl_HIRS2O1YGA95oGnUY56l3VJxfHksfrjPhSWgD_T8cgsM_v4h_D- -zwRoUPAea1TkQtGg1Da6zb2KGKCMioOpMPkIiEYbsMGZSQXU6_8NGGMe54yOBb6fr88YPTSfGMXjUBAa-uWBLPiQf87UyT0jf6Gd4VDIx1svXohf7RebP7JP99b8HcQzaPoEBx13cPO8dyZWy503gSXSZ7gxDw_n5BjK0pzeosCmqxDJiGNTRRbdl1ATXRzqKzsV08f5Qt4jJTxFdHYGcxDbpb8izdJ6PJMZx4E6OtRLZZlR8NJYSp6H-77Kt2KxaydO5SpnXhIN1769G9JanuZhHKRqiqdYTVDLrQ6uWGiYhSe-cWzhTYyRcD6QsfEMtgL0pcZZshjsL6ds_T-l__NVb4dz7ysmVFGDVe4]--></g></svg>

<svg xmlns="http://www.w3.org/2000/svg" width="565" height="374" viewBox="0 0 565 374"><rect width="482" height="39.789" x="7" y="328.58" fill="#3D176E" rx="2.5" ry="2.5" style="stroke:#000d19;stroke-width:.5"/><circle cx="22" cy="348.474" r="11" fill="#ADD1B2" style="stroke:#181818;stroke-width:1"/><path d="M24.969 354.115q-.578.297-1.219.438-.64.156-1.344.156-2.5 0-3.828-1.64-1.312-1.657-1.312-4.782t1.312-4.781q1.328-1.656 3.828-1.656.703 0 1.344.156.656.156 1.219.453v2.719q-.625-.579-1.219-.844-.594-.281-1.219-.281-1.343 0-2.031 1.078-.687 1.062-.687 3.156t.687 3.172q.688 1.062 2.031 1.062.625 0 1.219-.265.594-.281 1.219-.86z"/><text x="41" y="354.36" fill="#D9B8FF" font-family="Helvetica" font-size="17" textLength="440">azure_machine_learning_environment_version_base</text><rect width="224" height="39.789" x="101" y="167.79" fill="#3D176E" rx="2.5" ry="2.5" style="stroke:#000d19;stroke-width:.5"/><circle cx="116" cy="187.685" r="11" fill="#ADD1B2" style="stroke:#181818;stroke-width:1"/><path d="M118.969 193.325q-.578.297-1.219.438-.64.156-1.344.156-2.5 0-3.828-1.64-1.312-1.657-1.312-4.782t1.312-4.781q1.328-1.656 3.828-1.656.703 0 1.344.156.656.156 1.219.453v2.719q-.625-.578-1.219-.844-.594-.281-1.219-.281-1.344 0-2.031 1.078-.687 1.062-.687 3.156t.687 3.172q.688 1.062 2.031 1.062.625 0 1.219-.265.594-.281 1.219-.86z"/><text x="135" y="193.57" fill="#D9B8FF" font-family="Helvetica" font-size="17" textLength="182">azure_proxy_resource</text><rect width="198" height="39.789" x="360" y="167.79" fill="#3D176E" rx="2.5" ry="2.5" style="stroke:#000d19;stroke-width:.5"/><circle cx="375" cy="187.685" r="11" fill="#ADD1B2" style="stroke:#181818;stroke-width:1"/><path d="M377.969 193.325q-.578.297-1.219.438-.64.156-1.344.156-2.5 0-3.828-1.64-1.312-1.657-1.312-4.782t1.312-4.781q1.328-1.656 3.828-1.656.703 0 1.344.156.656.156 1.219.453v2.719q-.625-.578-1.219-.844-.594-.281-1.219-.281-1.344 0-2.031 1.078-.687 1.062-.687 3.156t.687 3.172q.688 1.062 2.031 1.062.625 0 1.219-.265.594-.281 1.219-.86z"/><text x="394" y="193.57" fill="#D9B8FF" font-family="Helvetica" font-size="17" textLength="156">phantom_resource</text><rect width="113" height="39.789" x="402.5" y="7" fill="#3D176E" rx="2.5" ry="2.5" style="stroke:#000d19;stroke-width:.5"/><circle cx="417.5" cy="26.895" r="11" fill="#ADD1B2" style="stroke:#181818;stroke-width:1"/><path d="M420.469 32.535q-.578.297-1.219.438-.64.156-1.344.156-2.5 0-3.828-1.64-1.312-1.657-1.312-4.782t1.312-4.781q1.328-1.656 3.828-1.656.703 0 1.344.156.656.156 1.219.453v2.719q-.625-.578-1.219-.844-.594-.281-1.219-.281-1.344 0-2.031 1.078-.687 1.062-.687 3.156t.687 3.172q.688 1.062 2.031 1.062.625 0 1.219-.265.594-.281 1.219-.86z"/><text x="436.5" y="32.78" fill="#D9B8FF" font-family="Helvetica" font-size="17" textLength="71">resource</text><path fill="none" d="M221.096 225.418c6.73 30.52 15.934 72.272 22.664 102.832m-26.54-120.41-1.983 18.87 11.718-2.584zm201.947 10.823c-40.56 30.52-105.017 79.027-145.627 109.587m160.01-120.41-17.99 6.028 7.215 9.589zM459 65.05v102.41m0-120.41-6 18h12z" style="stroke:#ffaf37;stroke-width:2"/></svg>
